X:1
T:DANCE OF THE HOGAN'S ALLEY KID.
T:DANCE OF THE HOGAN'S ALLEY KID.
T:F. C. SHARDLOW.
T:Dedicated to my Friend Mrs.C.D.Griffith.
T:Copyright 1897 by Fred C. Shardlow, Minneapolis, Minn.
T:Copyright 1897 by Fred C. Shardlow, Minneapolis, Minn.
T:Copyright 1897 by Fred C. Shardlow, Minneapolis, Minn.
T:Copyright 1897 by Fred C. Shardlow, Minneapolis, Minn.
T:Copyright 1897 by Fred C. Shardlow, Minneapolis, Minn.
C:F. C. SHARDLOW.
Z:Copyright 1897 by Fred C. Shardlow, Minneapolis, Minn.
%%score { ( 1 3 ) | ( 2 4 ) }
L:1/8
Q:1/4=160
M:4/4
K:Eb
V:1 treble nm="Piano" snm="Pno."
V:3 treble 
V:2 bass 
V:4 bass 
V:1
"^Allegro."!f! B/ | e2- e>g f>d (c>B) | e2- e>g f>d (c>B) | e>d e>g c'>b g>e | %4
 f>c d>e f2!<(! f/g/a/b/!<)! | !>!c' z (!>![ceac']2 .b) z !>![Begb]2 | .a>g a>b g7/2 e/ | %7
 (3cde (3fga .g z [Af]>(g | (f2 [Adf]2) .[GBe]>)B c>d | e2- e>g f>d (c>B) | e2- e>g f>d (c>B) | %11
 e>d e>g c'>b g>e | f>c d>e f2!<(! f/g/a/b/!<)! | !>!c' z (!>![ceac']2 .b) z !>![Begb]2 | %14
 .a>g a>b (g7/2 e/) | (3cde (3fga .g z [Af]>g | (f2 [Adf]2) .[GBe] z z3/2 ||!mf! B/ | e4 c7/2 B/ | %19
 e6 c>B | e>d e>g c'>b g>e | f>=e f>g .f2!<(! (3(bc'd'!<)! |!f! .e') z (!>!e'2 .d') z !>!d'2 | %23
 (c'>=b c'>)(e' _b7/2 .g/) | (3fga .g z/ (a/ !>!g2 .f2) | (e>c B>G .E2) (3Bcd | %26
 e3 (3f/e/d/ !>!c z !>!B z | e4- (3efe (3dcB | e>d e>g c'>b g>e | f>=e f>g .f2!<(! (3(bc'd'!<)! | %30
!ff! .e') z (!>!e'2 .d') z !>!d'2 | (c'>=b c'>)(e' _b7/2 .g/) | (3fga .g z/ a/ !>!g2 .f2 | %33
 e>c B>G .E2 z2 ||!mf!{/g} .[eg]2{/g} .[dg]2{/g} .[cg]2{/g} .[=Bg]2 | %35
{/g} (3[_Bg]=AB (3cBG .E z!f! (3G_A=A |!<(! (3Bcd (3.e z (d !>!f2 .e2)!<)! | %37
!>(! (([db]4 .[ca]))!>)! z z2 |!mf!{/a} .[fa]2{/a} .[ea]2{/a} .[da]2{/a} .[ca]2 | %39
 (3=Bc^c (3d=cA!f! .F2 z!<(! G | (3AB=B (3c^cd .g2 .f2!<)! |!>(! (3egf!>)! (3edc (3Bcd (3efg | %42
!mf!{/g} .[eg]2{/g} .[dg]2{/g} .[cg]2{/g} .[=Bg]2 |{/g} (3[_Bg]=AB (3cBG .E z!f! (3G_A=A | %44
!<(! (3Bcd (3.e z (d !>!f2 .e2)!<)! |!>(! (([db]4 .[ca]))!>)! z z2 | %46
!mf!{/a} .[fa]2{/a} .[ea]2{/a} .[da]2{/a} .[ca]2 | (3=Bc^c (3d=cA!f! .F2 z!<(! G | %48
 (3AB=B (3c^cd .g2 .f2!<)! |!8va(! (3fgb (3e'g'b' .e''2!8va)! ||!mf! (3Bcd | %51
 e3 (3f/e/d/ .c z .B z | e4- (3efe (3dcB | e>d e>g c'>b g>e | f>=e f>g .f2 (3(bc'd' | %55
 .e') z (!>!e'2 .d') z !>!d'2 | (c'>=b c'>)e' _b7/2 g/ | (3fga .g z/ (a/ !>!g2 .f2) | %58
 e>c B>G E2 z | B, |"^Moderato." F4 [fabd'] z z x | F4 [gbe'g']3/2 x/ x2 | F6 x2 | F4 x3/2 || %64
[K:Bb]"^a tempo" B<AG/ | F4 !>![Aeg]3/2 B<AG/ | F6 x2 |!f! !>!F>!<(!=EF>^F G>_ed>c | %68
 B>b!<)!a>!>(!g f>!>)!BA>G | F4 !>![Aeg]>B A>G | F6 x2 | G2 [eg] z A2 [efa] z | %72
 [Bdfb]2 z2!8va(! [bd'f'b']2!8va)! || (3BAB | c4- c>_a g>f | (e>g) B2- B>AB>=B | %76
 c>c' c>^c d>_ag>f | e>e' !^!d'>c' b>e !^!d>c | B4- B>_a g>f | (e>g) B2- B>AB>=B | %80
 c>c' c>^c d>_ag>f | .e z [ee']2- [ee']3/2 || B<AG/ | F6 z2 | F6 z2 |!<(! !^!F>=EF>^F !^!G>_ed>c | %86
 !^!B>ba>g!<)!!>(! f>B!>)!A>G | F6 z2 | F6 x2 | G2 [eg] z A2 [efa] z | %90
 [Bdfb]2 z2!8va(! [bd'f'b']!8va)! ||[K:Eb] Bc>d | e2- e>g (3fgf (3dcB | e2- e>g (3fgf (3dcB | %94
 (3efd e>g c'>b g>e | (3fgf (3cde f2 (f/g/a/b/) | !>!c'>a (3eac' .b z [Begb]2 | (3abg a>b g7/2 e/ | %98
 (3cde (3fga .g z [Af]>g | (f2 [Adf]2) [GBe]2 z | (3Bcd | e3 (3f/e/d/ .c z .B z | e4- (3efe (3dcB | %103
 e>d e>g c'>b g>e | f>=e f>g .f2 (3(bc'd' | !>!e') z (!>!e'2 d') z !>!d'2 | c'>=b c'>e' _b7/2 g/ | %107
 (3fga .g z/ a/ !>!g2 .f2 | e>c B>G E2 z |[M:4/4]!ff! [Bb]/[Bb]/ | %110
!<(! [Bb][=B=b] [cc'][dd'] [ee']!<)! z z!8va(! [_bb']/[bb']/ | %111
!<(! [bb'][=b=b'] [c'c''][d'd''] [e'e'']!8va)!!<)! z z3/2 [GBeg]/ | %112
 !>![GBeg]2 z2 z2 z3/2 [G,B,E]/ | !>![G,B,E]6 z3/2 |] %114
V:2
 z/ | [E,,E,]2 (!>![B,EG]2 .[B,DA]2) z2 | [E,,E,]2 (!>![B,EG]2 .[B,DA]2) z2 | %3
 [E,,E,]2 [B,EG]2 [G,,G,]2 [B,EG]2 | [F,,F,]2 ((!>![CEF=A]2 .[B,DF_A]2)) z2 | %5
 [A,,A,]2 [CEA]2 [G,,G,]2 [B,EG]2 | [F,,F,]2 [A,B,D]2 [E,,E,]2 [G,B,E]2 | %7
 [A,,A,]2 [A,CF]2 [B,,B,]2 [B,DF]2 | [B,,B,]2 [B,DF]2 [E,E]2 z2 | %9
 [E,,E,]2 (!>![B,EG]2 .[B,DA]2) z2 | [E,,E,]2 (!>![B,EG]2 .[B,DA]2) z2 | %11
 [E,,E,]2 [B,EG]2 [G,,G,]2 [B,EG]2 | [F,,F,]2 ((!>![CEF=A]2 .[B,DF_A]2)) z2 | %13
 [A,,A,]2 [CEA]2 [G,,G,]2 [B,EG]2 | [F,,F,]2 [A,B,D]2 [E,,E,]2 [G,B,E]2 | %15
 [A,,A,]2 [A,CF]2 [B,,B,]2 [B,DF]2 | [B,,B,]2 [B,DF]2 [E,E] z z3/2 || z/ | %18
 [E,,E,]2 [B,EG]2 [CEA]2 [B,DA]2 | [E,,E,]2 [B,EG]2 [CEA]2 [B,DA]2 | %20
 [E,,E,]2 [B,EG]2 [B,,,B,,]2 [B,EG]2 | [F,,F,]2 ((!>![CEF=A]2 .[B,DF_A]2)) z2 | %22
 [C,,C,]2 [G,CE]2 [G,,,G,,]2 [G,=B,DF]2 | [A,,,A,,]2 [E,A,C]2!8vb(! E,,,2!8vb)! [G,B,E]2 | %24
 [A,,,A,,]2 [A,CF]2 [B,,,B,,]2 [B,DFA]2 | [E,E]2 [B,,B,]2 [E,,E,]2 z2 | %26
 [E,,E,]2 [B,EG]2 [CEA]2 [B,DA]2 | [E,,E,]2 [B,EG]2 [CEA]2 [B,DA]2 | %28
 [E,,E,]2 [B,EG]2 [B,,,B,,]2 [B,EG]2 | [F,,F,]2 ((!>![CEF=A]2 .[B,DF_A]2)) z2 | %30
 [C,,C,]2 [G,CE]2 [G,,,G,,]2 [G,=B,DF]2 | [A,,,A,,]2 [E,A,C]2 E,,2 [G,B,E]2 | %32
 [A,,,A,,]2 [A,CF]2 [B,,,B,,]2 [B,DFA]2 | [E,E]2 [B,,B,]2 .[E,,E,]2 z2 || %34
 [E,,E,]2 [B,EG]2 [B,,,B,,]2 [B,EG]2 | [E,,E,]2 [B,EG]2 [G,,G,]2 z2 | %36
!ped! [E,,E,]2 [B,EG]2 [G,,G,]2 [B,EG]2!ped-up! |!ped! [F,,F,]2 (F2 .[B,DFA])!ped-up! z z2 | %38
 [B,,,B,,]2 [B,DFA]2 [F,,F,]2 [B,DFA]2 | [B,,,B,,]2 [B,DFA]2 [F,,F,]2 z2 | %40
!ped! [B,,,B,,]2 [B,DFA]2 [F,,F,]2 [B,DFA]2!ped-up! |!ped! [E,,E,]2 [B,EG]2!ped-up! [B,DA]2 z2 | %42
 [E,,E,]2 [B,EG]2 [B,,,B,,]2 [B,EG]2 | [E,,E,]2 [B,EG]2 [G,,G,]2 z2 | %44
!ped! [E,,E,]2 [B,EG]2 [G,,G,]2 [B,EG]2!ped-up! |!ped! [F,,F,]2 (F2 .[B,DFA])!ped-up! z z2 | %46
 [B,,,B,,]2 [B,DFA]2 [F,,F,]2 [B,DFA]2 | [B,,,B,,]2 [B,DFA]2 [F,,F,]2 z2 | %48
!ped! [B,,,B,,]2 [B,DFA]2 [F,,F,]2 [B,DFA]2!ped-up! |!ped! [E,,E,]2 [B,EG]2 [B,EG]2!ped-up! || z2 | %51
 [E,,E,]2 [B,EG]2 [CEA]2 [B,DA]2 | [E,,E,]2 [B,EG]2 [CEA]2 [B,DA]2 | %53
 [E,,E,]2 [B,EG]2 [B,,,B,,]2 [B,EG]2 | [F,,F,]2 (([CEF=A]2 .[B,DF_A]2)) z2 | %55
 [C,,C,]2 [G,CE]2 [G,,,G,,]2 [G,=B,DF]2 | [A,,,A,,]2 [E,A,C]2!8vb(! E,,,2!8vb)! [G,B,E]2 | %57
 [A,,,A,,]2 [A,CF]2 [B,,,B,,]2 [B,DFA]2 | [E,E]2 [B,,B,]2 [E,,E,]2 z | B,, | %60
 F,4[K:treble] x z z[K:bass] x | F,4[K:treble] x2 z2 |[K:bass] [F,,F,]2 [F,=A,E]2 [F,,,F,,]2 z2 | %63
 [B,,,B,,]2 [G,B,D]2 [D,,D,]3/2 ||[K:Bb] z/ z2 | [C,,C,]2 [F,A,E]2 [F,,,F,,]2 z2 | %66
 [B,,,B,,]2 [F,B,D]2 [D,,D,]2 z2 | [C,,C,]2 [F,A,E]2 [F,,F,]2 [F,A,E]2 | %68
 [B,,B,]2 ((!>![=E,B,_D]2 [F,B,=D]2)) z2 | [C,,C,]2 [F,A,E]2 [F,,,F,,]2 z2 | %70
 [B,,,B,,]2 [F,B,D]2 [D,,D,]2 z2 | [E,,E,]2 [E,G,C]2 [F,,F,]2 [F,A,E]2 | [B,,B,]2 z2 [B,DFB]2 || %73
 z2 | F,2 [_A,B,D]2 B,,2 [A,B,D]2 | E,2 [G,B,E]2 [G,,G,]2 [G,B,E]2 | %76
 [_A,,_A,]2 [A,CF]2 [B,,B,]2 [B,DF_A]2 | [E,E]2 ((!>![CEF=A]2 [B,DF_A]2)) z2 | %78
 [D,,D,]2 [B,DFA]2 [B,,,B,,]2 [B,DFA]2 | [E,,E,]2 [B,EG]2 [G,,G,]2 [B,EG]2 | %80
 [_A,,_A,]2 [A,CF]2 [B,,B,]2 [B,DF_A]2 | [E,E]2 [B,EG]2 [B,EG]3/2 || z/ z2 | %83
 [C,,C,]2 [F,A,E]2 [F,,,F,,]2 z2 | [B,,,B,,]2 [F,B,D]2 [D,,D,]2 z2 | %85
 [C,,C,]2 [F,A,E]2 [F,,F,]2 [F,A,E]2 | [B,,B,]2 [=E,B,_D]2 [F,B,=D]2 z2 | %87
 [C,,C,]2 [F,A,E]2 [F,,,F,,]2 z2 | [B,,,B,,]2 [F,B,D]2 [D,,D,]2 z2 | %89
 [E,,E,]2 [E,G,C]2 [F,,F,]2 [F,A,E]2 | [B,,B,]2 z2 [B,,,B,,] ||[K:Eb] z2 z | %92
 [E,,E,]2 (!>![B,EG]2 .[B,DA]2) z2 | [E,,E,]2 (!>![B,EG]2 .[B,DA]2) z2 | %94
 [E,,E,]2 [B,EG]2 [G,,G,]2 [B,EG]2 | [F,,F,]2 ((!>![CEF=A]2 .[B,DF_A]2)) z2 | %96
 [A,,A,]2 [CEA]2 [G,,G,]2 [B,EG]2 | [F,,F,]2 [A,B,D]2 [E,,E,]2 [G,B,E]2 | %98
 [A,,A,]2 [A,CF]2 [B,,B,]2 [B,DF]2 | [B,,B,]2 [B,DF]2 [E,E]2 z | z2 | %101
 [E,,E,]2 [B,EG]2 [CEA]2 [B,DA]2 | [E,,E,]2 [B,EG]2 [CEA]2 [B,DA]2 | %103
 [E,,E,]2 [B,EG]2 [B,,,B,,]2 [B,EG]2 | [F,,F,]2 (([CEF=A]2 .[B,DF_A]2)) z2 | %105
 [C,,C,]2 [G,CE]2 [G,,,G,,]2 [G,=B,DF]2 | [A,,,A,,]2 [E,A,C]2!8vb(! E,,,2!8vb)! [G,B,E]2 | %107
 [A,,,A,,]2 [A,CF]2 [B,,,B,,]2 [B,DFA]2 | [E,E]2 [B,,B,]2 [E,,E,]2 z |[M:4/4][K:treble] z | %110
 [DFA]4 G z2 z | [dfa]4 g z z3/2[K:bass] [E,G,_B,E]/ | !>![E,G,B,E]2 z2 z2 z3/2 [E,,B,,E,]/ | %113
 !>![E,,B,,E,]6 z3/2 |] %114
V:3
 x/ | x8 | x8 | x8 | x8 | x8 | x8 | x8 | x8 | x8 | x8 | x8 | x8 | x8 | x8 | x8 | x15/2 || x/ | x8 | %19
 x8 | x8 | x8 | x8 | x8 | x8 | x8 | x8 | x8 | x8 | x8 | x8 | x8 | x8 | x8 || x8 | x8 | x8 | x8 | %38
 x8 | x8 | x8 | x8 | x8 | x8 | x8 | x8 | x8 | x8 | x8 |!8va(! x6!8va)! || x2 | x8 | x8 | x8 | x8 | %55
 x8 | x8 | x8 | x7 | x | z2 [FABd] z x3 B, | z2 [GBeg] z x3/2 B<=AG/ | %62
 z2 !>![=Ae=a] z !>![Aea]3/2 B<=AG/ | z2 [Bdg]2 [Bdf]3/2 ||[K:Bb] x5/2 | z2 !>![Aeg] z x4 | %66
 z2 !>![Bdg] z !>![Bdf]>BAG | x8 | x8 | z2 !>![Aeg] z x4 | z2 !>![Bdg] z !>![Bdg]2 F>^F | x8 | %72
 x4!8va(! x2!8va)! || x2 | x8 | x8 | x8 | x8 | x8 | x8 | x8 | x11/2 || x5/2 | %83
 z2 !>![Aeg] z !>![Aeg]>BA>G | z2 !>![Bdg] z !>![Bdf]>BA>!f!G | x8 | x8 | %87
 z2 !>![Aeg] z !>![Aeg]>BA>G | z2 !>![Bdg] z !>![Bdg]2 F^F | x8 | x4!8va(! x!8va)! ||[K:Eb] x3 | %92
 x8 | x8 | x8 | x8 | x8 | x8 | x8 | x7 | x2 | x8 | x8 | x8 | x8 | x8 | x8 | x8 | x7 |[M:4/4] x | %110
 x7!8va(! x | x5!8va)! x3 | x8 | x15/2 |] %114
V:4
 x/ | x8 | x8 | x8 | x8 | x8 | x8 | x8 | x8 | x8 | x8 | x8 | x8 | x8 | x8 | x8 | x15/2 || x/ | x8 | %19
 x8 | x8 | x8 | x8 | x4!8vb(! x2!8vb)! x2 | x8 | x8 | x8 | x8 | x8 | x8 | x8 | x8 | x8 | x8 || x8 | %35
 x8 | x8 | x8 | x8 | x8 | x8 | x8 | x8 | x8 | x8 | x8 | x8 | x8 | x8 | x6 || x2 | x8 | x8 | x8 | %54
 x8 | x8 | x4!8vb(! x2!8vb)! x2 | x8 | x7 | x | z2 [F,A,B,D] z[K:treble] [FABd] x2[K:bass] B,, | %61
 z2 [G,B,E] z[K:treble] [Fce]3/2 z/ x2 |[K:bass] x8 | x11/2 ||[K:Bb] x5/2 | x8 | x8 | x8 | x8 | %69
 x8 | x8 | x8 | x6 || x2 | x8 | x8 | x8 | x8 | x8 | x8 | x8 | x11/2 || x5/2 | x8 | x8 | x8 | x8 | %87
 x8 | x8 | x8 | x5 ||[K:Eb] x3 | x8 | x8 | x8 | x8 | x8 | x8 | x8 | x7 | x2 | x8 | x8 | x8 | x8 | %105
 x8 | x4!8vb(! x2!8vb)! x2 | x8 | x7 |[M:4/4][K:treble] x | B,=B, CD E x3 | %111
 B=B cd e x5/2[K:bass] x/ | x8 | x15/2 |] %114

